X:25
T:O'Sullivans March / Oscar & Malvina Highland March
M:6/8
L:1/8
D:Catherine McEvoy with Felix Dolan (Sligo-Roscommon style)
K:Gmaj
"The First Clan March of the O'Sullivans"
D |: GBA ABd | edB AGD | GBA ~B2A | AGE GED |
G2B ABd | edB AGD | GBA ~B2A |1 AGG G2D :|2 AGG G2g ||
|: e2g e2g | ege edB | d2d dBd | egB ~A2G |
c2c dBd | egB A2G | GBA ~B2A |1 AGG G2 g :|2 AGG G2 D ||
K:Dmaj
"Highland March from Oscar & Malvina"
d3 d2e | dcB ABc | dcB AGF | GEF GFE |
e2e e2e | fed eag | fed dAB |1 def ~e3 :|2 def e2f |
|: fed eAA | fed e2a | gfe fBB | gfe fBB |
fed e2A | fed eag | fed dAB |1 def e2f :|2 def e2e |
| dfa dfa | a2a afd | egb egb | egb bge |
dfa dfa | dfa a2g | fed dAB | def ~e3 ||
|d2a dfa | a3 afd | egb e2b | egb bge |
dfa dfa | dfa a2g | fed dAB | def ~e3 ||
